X:293
T:Widow Wadman. RH.293
R:reel
S:Rev.R.Harrison’s MS,c1815,Cumbria
O:England
A:Temple Sowerby,Cumbria
Z:vmp.Simon Wilson. Review PJH, 2008.
M:C|
L:1/8
Q:1/2=75
K:G
g2bg afd2|egfa egfa|\
g2bg afd2|egfa g2G2:|!
|:BGBG d2d2|BGBG D2D2|\
BGBG d2d2|dgfa g2G2:|

